X:1
T:Donegal Traveller, The
L:1/8
M:2/2
I:linebreak $
K:A
V:1 treble 
V:1
 A2 EA CAEA | A2 cA GABG | A3 B cAGc |1 d2 ed cABG :|2 d2 ed cAAc || e3 d ecAc |$ e2 c dcBc |1 %7
 eA A2 fA A2 | eAed cAAc :|2 d2 dc dcBA | Feed cdBc || %11
